icon/fa/face-angry.svg

<svg xmlns="http://www.w3.org/2000/svg" viewBox="0 0 512 512"><!--! Font Awesome Free 6.1.2 by @fontawesome - https://fontawesome.com License - https://fontawesome.com/license/free (Icons: CC BY 4.0, Fonts: SIL OFL 1.1, Code: MIT License) Copyright 2022 Fonticons, Inc.--><path d="M512 256c0 141.4-114.6 256-256 256S0 397.4 0 256 114.6 0 256 0s256 114.6 256 256zM339.9 373.3C323.8 355.4 295.7 336 256 336s-67.8 19.4-83.9 37.3c-5.9 6.6-5.4 15.8 1.2 22.6 6.6 5.9 15.8 5.4 22.6-1.2 11.7-13 31.6-26.7 59.2-26.7 29.4 0 49.3 13.7 61 26.7 5.9 6.6 16 7.1 22.6 1.2 6.6-6.8 7.1-16 1.2-22.6zM176.4 272c17.6 0 32-14.3 32-32 0-1.5-.1-3-.3-4.4l10.8 3.6c8.4 1.9 17.5-1.8 20.3-10.1 1.9-8.4-1.8-17.5-10.1-20.3l-96-32c-8.4-2.8-17.5 1.8-20.3 10.1-2.8 8.4 1.8 17.5 10.1 20.3l30.8 10.2c-5.8 5.8-9.3 13.8-9.3 22.6 0 17.7 14.3 32 32 32zm182.5-54.8 30.2-10c8.3-2.8 12-11.9 10.1-20.3-2.8-8.3-11.9-12.9-20.3-10.1l-96 32c-8.3 2.8-12.9 11.9-10.1 20.3 2.8 8.3 11.9 12 20.3 10.1l11.6-3.9c-.2 1.5-.3 3.1-.3 4.7 0 17.7 14.3 32 32 32 17.6 0 32-14.3 32-32 0-8.9-3.7-17-9.5-22.8z"/></svg>

<svg xmlns="http://www.w3.org/2000/svg" viewBox="0 0 512 512" height="1em" width="1em">
<!--! Font Awesome Free 6.1.2 by @fontawesome - https://fontawesome.com License - https://fontawesome.com/license/free (Icons: CC BY 4.0, Fonts: SIL OFL 1.1, Code: MIT License) Copyright 2022 Fonticons, Inc.-->
  <path d="M512 256C512 397.4 397.4 512 256 512C114.6 512 0 397.4 0 256C0 114.6 114.6 0 256 0C397.4 0 512 114.6 512 256zM339.9 373.3C323.8 355.4 295.7 336 256 336C216.3 336 188.2 355.4 172.1 373.3C166.2 379.9 166.7 389.1 173.3 395.9C179.9 401.8 189.1 401.3 195.9 394.7C207.6 381.7 227.5 368 255.1 368C284.5 368 304.4 381.7 316.1 394.7C322 401.3 332.1 401.8 338.7 395.9C345.3 389.1 345.8 379.9 339.9 373.3H339.9zM176.4 272C194 272 208.4 257.7 208.4 240C208.4 238.5 208.3 237 208.1 235.6L218.9 239.2C227.3 241.1 236.4 237.4 239.2 229.1C241.1 220.7 237.4 211.6 229.1 208.8L133.1 176.8C124.7 174 115.6 178.6 112.8 186.9C110 195.3 114.6 204.4 122.9 207.2L153.7 217.4C147.9 223.2 144.4 231.2 144.4 240C144.4 257.7 158.7 272 176.4 272zM358.9 217.2L389.1 207.2C397.4 204.4 401.1 195.3 399.2 186.9C396.4 178.6 387.3 174 378.9 176.8L282.9 208.8C274.6 211.6 270 220.7 272.8 229.1C275.6 237.4 284.7 241.1 293.1 239.2L304.7 235.3C304.5 236.8 304.4 238.4 304.4 240C304.4 257.7 318.7 272 336.4 272C354 272 368.4 257.7 368.4 240C368.4 231.1 364.7 223 358.9 217.2H358.9z"/>
</svg>
